src/telerik-icons/solid/table-position-center.svg

<?xml version="1.0" encoding="utf-8"?>
<svg xmlns="http://www.w3.org/2000/svg" width="512" height="512" viewBox="0 0 512 512">
  <path d="M352 256V32H128v224h224zM256 64h64v64h-64V64zm-32 160h-64v-64h64v64zm0-96h-64V64h64v64zm32 32h64v64h-64v-64zM32 448h320v32H32v-32zm448-128v32H32v-32h448zM32 384h448v32H32v-32z"/>
</svg>

<?xml version="1.0" encoding="utf-8"?>
<!-- Generator: Adobe Illustrator 25.0.0, SVG Export Plug-In . SVG Version: 6.00 Build 0)  -->
<svg xmlns="http://www.w3.org/2000/svg"
	 width="512px" height="512px" viewBox="0 0 512 512" enable-background="new 0 0 512 512">
<path d="M352,256V32H128v224h192H352z M256,64h64v64h-64V64z M224,224h-64v-64h64V224z M224,128h-64V64h64V128z M256,160h64v64h-64
	V160z M32,448h320v32H32V448z M480,320v32H32v-32H480z M32,384h448v32H32V384z" />
</svg>
